assets/icons/mix.svg

<?xml version="1.0" encoding="UTF-8" standalone="no"?>
<svg
   width="19.738436"
   height="19.999683"
   viewBox="0 0 19.738436 19.999683"
   fill="none"
   version="1.1"
   id="svg9993"
   sodipodi:docname="mix.svg"
   inkscape:version="1.2.2 (b0a84865, 2022-12-01)"
   xmlns:inkscape="http://www.inkscape.org/namespaces/inkscape"
   xmlns:sodipodi="http://sodipodi.sourceforge.net/DTD/sodipodi-0.dtd"
   xmlns="http://www.w3.org/2000/svg"
   xmlns:svg="http://www.w3.org/2000/svg">
  <defs
     id="defs9997" />
  <sodipodi:namedview
     id="namedview9995"
     pagecolor="#505050"
     bordercolor="#eeeeee"
     borderopacity="1"
     inkscape:showpageshadow="0"
     inkscape:pageopacity="0"
     inkscape:pagecheckerboard="0"
     inkscape:deskcolor="#505050"
     showgrid="false"
     inkscape:zoom="9.8333333"
     inkscape:cx="10.067797"
     inkscape:cy="9.9661017"
     inkscape:window-width="1309"
     inkscape:window-height="456"
     inkscape:window-x="0"
     inkscape:window-y="25"
     inkscape:window-maximized="0"
     inkscape:current-layer="svg9993" />
  <g
     id="Frame 3731018"
     transform="translate(-1.9999647,-1.9999766)">
    <g
       id="Group 3211629">
      <path
         id="Vector 16"
         d="M 18.8793,2.35926 C 18.5254,1.93524 17.8948,1.87837 17.4708,2.23225 c -0.424,0.35387 -0.4809,0.98447 -0.127,1.40849 z m -1.5355,6.92307 c -0.3539,0.42402 -0.297,1.05467 0.127,1.40847 0.424,0.3539 1.0546,0.297 1.4085,-0.127 z M 20.3526,7.44064 21.3317,7.644 21.7384,5.68579 20.7593,5.48243 Z m -7.9638,1.00733 -0.552,0.83383 1.6677,1.1041 0.552,-0.83388 z m 8.0769,-2.62718 -0.7678,0.64075 z m 0,1.28149 -0.7678,-0.64074 z m -3.1219,-3.46154 2.3541,2.8208 1.5355,-1.28149 -2.3541,-2.82079 z m 2.3541,2.8208 -2.3541,2.82079 1.5355,1.28147 2.3541,-2.82077 z M 20.7593,5.48243 C 18.795,5.07445 14.6975,4.96072 12.3888,8.44797 l 1.6677,1.10405 C 15.6589,7.13159 18.6133,7.0794 20.3526,7.44064 Z m -1.0614,0.97911 v 0 l 1.5355,1.28149 c 0.6194,-0.74209 0.6194,-1.82089 0,-2.56298 z"
         fill="#ffffff" />
      <path
         style="color:#000000;fill:#ffffff;stroke-linecap:round;-inkscape-stroke:none"
         d="m 17.470703,13.308594 a 1,1 0 0 0 -0.126953,1.408203 l 1.53125,1.835937 c -0.587154,0.01914 -1.093486,0.13944 -1.722656,-0.0059 -1.169174,-0.270006 -2.271548,-0.854716 -3.095703,-2.099609 a 1,1 0 0 0 -1.386719,-0.28125 1,1 0 0 0 -0.28125,1.386718 c 1.131343,1.708904 2.768829,2.586417 4.314453,2.94336 0.705412,0.162906 1.383687,0.206217 2.023437,0.207031 l -1.382812,1.65625 a 1,1 0 0 0 0.126953,1.408203 1,1 0 0 0 1.408203,-0.126953 l 2.355469,-2.820313 h -0.002 c 0.615274,-0.737058 0.617082,-1.825417 0.002,-2.5625 l -2.355469,-2.822265 a 1,1 0 0 0 -1.408203,-0.126953 z"
         id="Vector 18" />
      <path
         id="Vector 17"
         d="m 3.20352,16.5593 c -0.54075,-0.1123 -1.07015,0.235 -1.18246,0.7757 -0.11231,0.5408 0.23501,1.0702 0.77575,1.1825 z m 7.96378,-1.0073 0.552,-0.8339 -1.6676,-1.104 -0.55203,0.8338 z m -8.37049,2.9655 c 1.96437,0.408 6.06182,0.5217 8.37049,-2.9655 L 9.49967,14.4479 c -1.60242,2.4204 -4.55682,2.4726 -6.29615,2.1114 z"
         fill="#ffffff" />
      <path
         style="color:#000000;fill:#ffffff;stroke-linecap:round;-inkscape-stroke:none"
         d="M 4.6367187,5.6914062 C 3.9464457,5.703392 3.3191009,5.7880241 2.796875,5.8964844 A 1,1 0 0 0 2.0214844,7.078125 1,1 0 0 0 3.203125,7.8535156 c 0.8074064,-0.167689 2.0300354,-0.2563238 3.1992187,0.013672 1.1627372,0.2685071 2.259321,0.8512091 3.0820313,2.0820313 l 2.849609,5.5097651 a 1,1 0 0 0 1.347657,0.429688 1,1 0 0 0 0.429687,-1.347656 L 11.197266,8.90625 11.167969,8.8613281 C 10.03658,7.1524053 8.399152,6.2748975 6.8535156,5.9179687 6.0806974,5.7395044 5.3269918,5.6794205 4.6367187,5.6914062 Z"
         id="Vector 19" />
    </g>
  </g>
</svg>

<svg width="24" height="24" viewBox="0 0 24 24" fill="none" xmlns="http://www.w3.org/2000/svg">
<g id="Frame 3731018">
<g id="Group 3211629">
<path id="Vector 16" d="M18.8793 2.35926C18.5254 1.93524 17.8948 1.87837 17.4708 2.23225C17.0468 2.58612 16.9899 3.21672 17.3438 3.64074L18.8793 2.35926ZM17.3438 9.28233C16.9899 9.70635 17.0468 10.337 17.4708 10.6908C17.8948 11.0447 18.5254 10.9878 18.8793 10.5638L17.3438 9.28233ZM20.3526 7.44064L21.3317 7.644L21.7384 5.68579L20.7593 5.48243L20.3526 7.44064ZM12.3888 8.44797L11.8368 9.2818L13.5045 10.3859L14.0565 9.55202L12.3888 8.44797ZM20.4657 5.82079L19.6979 6.46154L20.4657 5.82079ZM20.4657 7.10228L19.6979 6.46154L20.4657 7.10228ZM17.3438 3.64074L19.6979 6.46154L21.2334 5.18005L18.8793 2.35926L17.3438 3.64074ZM19.6979 6.46154L17.3438 9.28233L18.8793 10.5638L21.2334 7.74303L19.6979 6.46154ZM20.7593 5.48243C18.795 5.07445 14.6975 4.96072 12.3888 8.44797L14.0565 9.55202C15.6589 7.13159 18.6133 7.0794 20.3526 7.44064L20.7593 5.48243ZM19.6979 6.46154V6.46154L21.2334 7.74303C21.8528 7.00094 21.8528 5.92214 21.2334 5.18005L19.6979 6.46154Z" fill="white"/>
<path id="Vector 18" d="M18.1115 21L20.4657 18.1792C20.7754 17.8082 20.7754 17.2688 20.4657 16.8977L18.1115 14.0769M20.556 17.5385C18.7041 17.9231 15.1782 17.9538 13.2227 15" stroke="white" stroke-width="2" stroke-linecap="round"/>
<path id="Vector 17" d="M3.20352 16.5593C2.66277 16.447 2.13337 16.7943 2.02106 17.335C1.90875 17.8758 2.25607 18.4052 2.79681 18.5175L3.20352 16.5593ZM11.1673 15.552L11.7193 14.7181L10.0517 13.6141L9.49967 14.4479L11.1673 15.552ZM2.79681 18.5175C4.76118 18.9255 8.85863 19.0392 11.1673 15.552L9.49967 14.4479C7.89725 16.8683 4.94285 16.9205 3.20352 16.5593L2.79681 18.5175Z" fill="white"/>
<path id="Vector 19" d="M3.00043 6.87469C4.85229 6.49008 8.37821 6.45931 10.3338 9.41316L13.2227 15" stroke="white" stroke-width="2" stroke-linecap="round"/>
</g>
</g>
</svg>
